public/img/HOW/IDEA.svg

<?xml version="1.0" encoding="UTF-8"?>
<svg width="140px" height="160px" viewBox="0 0 140 160" version="1.1" xmlns="http://www.w3.org/2000/svg" xmlns:xlink="http://www.w3.org/1999/xlink">
    <!-- Generator: Sketch 42 (36781) - http://www.bohemiancoding.com/sketch -->
    <title>Idea</title>
    <desc>Created with Sketch.</desc>
    <defs>
        <path d="M6.99536424,1.34830409 C4.79801325,1.34830409 2.1797351,0.886081871 0.161324503,0.065497076 C0.148344371,0.490292398 0.174304636,0.886081871 0.241986755,1.29590643 C0.701854305,4.01122807 2.8018543,6.14081871 5.4989404,6.64701754 C5.8781457,6.71438596 6.6013245,6.75555556 6.98145695,6.75555556 C10.5713907,6.75555556 13.841457,3.83345029 13.841457,0.215204678 L13.841457,0.065497076 C11.1091391,0.886081871 9.18900662,1.34830409 6.99536424,1.34830409 Z" id="path-1"></path>
        <path d="M4.23337748,4.18994152 C-0.25218543,8.62877193 -0.306887417,15.8923977 4.09708609,20.4135673 C4.81562914,21.1911111 5.33112583,22.1454971 5.57496689,23.1719298 C7.48582781,24.1132164 9.81576159,24.699883 12.2143046,24.699883 C14.6536424,24.699883 17.037351,24.100117 18.9750993,23.1157895 C19.2736424,21.9826901 19.855894,20.9319298 20.6560265,20.057076 C24.694702,15.5527485 24.5593377,8.65497076 20.330596,4.32748538 C18.0980132,2.04444444 15.1561589,0.900116959 12.2124503,0.900116959 C9.33271523,0.900116959 6.45112583,1.99578947 4.23337748,4.18994152 Z" id="path-3"></path>
        <path d="M17.6872848,3.25988304 C20.0737748,1.50175439 22.9460927,0.564210526 25.9695364,0.564210526 C29.0031788,0.564210526 32.0813245,1.61777778 34.634702,3.52935673 C37.2872848,5.6477193 39.1675497,8.64374269 39.8249007,11.7726316 L40.3607947,14.0940351 C41.1989404,17.7459649 40.4859603,21.8217544 38.4527152,24.9936842 L35.9688742,28.9890058 L39.7423841,30.1267836 C44.1268874,31.525614 47.825298,34.608655 49.9113907,38.5936842 L50.1274172,39.142924 L51.6989404,43.5854971 C52.5046358,45.8283041 52.1699338,48.2535673 50.7838411,50.2334503 C49.4830464,52.1291228 47.2782781,53.2687719 44.8880795,53.2687719 L7.35788079,53.2687719 C4.99827815,53.2687719 2.7786755,52.1338012 1.4213245,50.2306433 C0.102913907,48.2919298 -0.239205298,45.7403509 0.509006623,43.5480702 L2.24463576,38.771462 L2.40503311,38.6011696 C4.58476821,34.4879532 8.20066225,31.4984795 12.5805298,30.2016374 L16.3540397,29.0647953 L13.6402649,24.6839766 C11.741457,21.6954386 11.0071523,18.0930994 11.5801325,14.5525146 L11.924106,12.5052632 C12.6203974,8.67087719 14.6656954,5.39415205 17.6872848,3.25988304 Z M3.69748344,48.6175439 C4.52728477,49.7787135 5.86794702,50.4617544 7.35788079,50.4617544 L44.8880795,50.4617544 C46.3872848,50.4617544 47.7047682,49.7918129 48.5039735,48.6240936 C49.3671523,47.3936842 49.5739073,45.9087719 49.0815894,44.5361404 L47.4275497,39.8559064 C45.6752318,36.5426901 42.5794702,33.9752047 38.9255629,32.8084211 L31.670596,30.6208187 L36.1070199,23.4853801 C37.7490066,20.9207018 38.3229139,17.654269 37.6525828,14.7274854 L37.1101987,12.3817544 C36.5780132,9.8554386 35.0611921,7.44982456 32.942649,5.75812865 C30.8992053,4.22830409 28.4107285,3.3702924 25.9695364,3.3702924 C23.538543,3.3702924 21.2354967,4.12163743 19.3042384,5.54479532 C16.8639735,7.26830409 15.2229139,9.90783626 14.6619868,12.9927485 L14.322649,15.0128655 C13.8637086,17.8610526 14.4543046,20.7644444 15.9887417,23.1822222 L20.646755,30.7012865 L13.3686093,32.8945029 C9.70172185,33.9808187 6.67364238,36.4884211 4.83788079,39.9616374 L4.65801325,40.2825731 L3.12913907,44.4884211 C2.67205298,45.8311111 2.88529801,47.4226901 3.69748344,48.6175439 Z" id="path-5"></path>
    </defs>
    <g id="Page-1" stroke="none" stroke-width="1" fill="none" fill-rule="evenodd">
        <g id="Landing-Copy-3" transform="translate(-55.000000, -1409.000000)">
            <g id="HOW-IT-WORKS-Copy" transform="translate(55.000000, 1255.000000)">
                <g id="Idea" transform="translate(0.000000, 154.000000)">
                    <polygon id="Fill-1" fill="#6DC7C7" points="0.16002649 39.9205614 0.16002649 119.452725 69.6964503 159.218807 139.232874 119.452725 139.232874 39.9205614 69.6964503 0.154479532"></polygon>
                    <polygon id="Fill-2" fill="#6DC7C7" points="0.159562914 39.9218713 0.159562914 119.452164 69.6959868 159.218246 139.233338 119.452164 139.233338 39.9218713 69.6959868 0.154853801"></polygon>
                    <polygon id="Fill-3" fill="#6DC7C7" points="0.159377483 39.9218713 0.159377483 119.453099 69.6967285 159.218246 139.233152 119.453099 139.233152 39.9218713 69.6967285 0.154853801"></polygon>
                    <g id="Group-6" transform="translate(63.046358, 56.804678)">
                        <mask id="mask-2" fill="white">
                            <use xlink:href="#path-1"></use>
                        </mask>
                        <g id="Clip-5"></g>
                        <polygon id="Fill-4" fill="#FFFFFF" mask="url(#mask-2)" points="-2.11854305 9.05356725 16.1176159 9.05356725 16.1176159 -2.23251462 -2.11854305 -2.23251462"></polygon>
                    </g>
                    <g id="Group-9" transform="translate(57.483444, 31.541520)">
                        <mask id="mask-4" fill="white">
                            <use xlink:href="#path-3"></use>
                        </mask>
                        <g id="Clip-8"></g>
                        <polygon id="Fill-7" fill="#FFFFFF" mask="url(#mask-4)" points="-1.44543046 26.9978947 25.8721854 26.9978947 25.8721854 -1.39789474 -1.44543046 -1.39789474"></polygon>
                    </g>
                    <path d="M48.234543,115.800889 L46.7056689,120.007673 C46.2476556,121.348491 46.4618278,122.94007 47.2740132,124.134924 C48.1028874,125.297029 49.4444768,125.979135 50.9344106,125.979135 L88.4646093,125.979135 C89.9628874,125.979135 91.2803709,125.310129 92.0805033,124.143345 C92.942755,122.912 93.1495099,121.426152 92.6571921,120.05352 L91.0031523,115.374222 C89.2508344,112.06007 86.1550728,109.49352 82.5020927,108.327673 L75.2461987,106.139135 L79.6826225,99.0027602 C81.3246093,96.4399532 81.8994437,93.1716491 81.2281854,90.2458012 L80.6867285,87.9000702 C80.1554702,85.3728187 78.6377219,82.9681404 76.5191788,81.2755088 C74.4757351,79.7456842 71.9863311,78.8886082 69.5451391,78.8886082 C67.1150728,78.8886082 64.8110993,79.6408889 62.8798411,81.0621754 C60.4405033,82.7866199 58.8003709,85.426152 58.2385166,88.5101287 L57.8991788,90.5311813 C57.4393113,93.3793684 58.0299073,96.2827602 59.5661987,98.700538 L64.2232848,106.218667 L56.9460662,108.412819 C53.2763974,109.498199 50.2501722,112.006737 48.4134834,115.479953 L48.234543,115.800889 Z M88.4646093,128.786152 L50.9344106,128.786152 C48.5738808,128.786152 46.3552053,127.651181 44.9978543,125.748959 C43.6794437,123.80931 43.3363974,121.258667 44.0846093,119.066386 L45.8202384,114.289778 L45.9806358,114.119485 C48.1603709,110.006269 51.7771921,107.016795 56.1561325,105.720889 L59.9296424,104.583111 L57.2167947,100.201357 C55.3179868,97.2137544 54.5836821,93.6114152 55.1557351,90.0708304 L55.4997086,88.0226433 C56.1969272,84.1882573 58.2422252,80.9124678 61.2628874,78.7781988 C63.6503046,77.0200702 66.5226225,76.0815906 69.5451391,76.0815906 C72.5797086,76.0815906 75.6569272,77.1351579 78.2103046,79.0476725 C80.8638146,81.1660351 82.7440795,84.1611228 83.4023576,87.2900117 L83.9373245,89.6114152 C84.7754702,93.2652164 84.0624901,97.3391345 82.0283179,100.511064 L79.545404,104.506386 L83.3198411,105.645099 C87.7024901,107.042994 91.4018278,110.126971 93.4879205,114.111064 L93.703947,114.66124 L95.274543,119.103813 C96.0793113,121.345684 95.7464636,123.770947 94.3594437,125.751766 C93.0605033,127.647439 90.8538808,128.786152 88.4646093,128.786152 L88.4646093,128.786152 Z" id="Fill-10" fill="#FFFFFF"></path>
                    <g id="Group-15" transform="translate(43.576159, 75.518129)">
                        <mask id="mask-6" fill="white">
                            <use xlink:href="#path-5"></use>
                        </mask>
                        <g id="Clip-13"></g>
                        <path d="M-908.609272,3858.71345 L793.94649,3858.71345 L793.94649,-1849.55602 L-908.609272,-1849.55602 L-908.609272,3858.71345 Z M-911.390728,3861.52047 L796.727947,3861.52047 L796.727947,-1852.36304 L-911.390728,-1852.36304 L-911.390728,3861.52047 Z" id="Fill-12" fill="#FFFFFF" mask="url(#mask-6)"></path>
                        <path d="M-3.34609272,56.7607018 L55.5864901,56.7607018 L55.5864901,-2.92865497 L-3.34609272,-2.92865497 L-3.34609272,56.7607018 Z M-6.12754967,59.5677193 L58.367947,59.5677193 L58.367947,-5.73567251 L-6.12754967,-5.73567251 L-6.12754967,59.5677193 Z" id="Fill-14" fill="#FFFFFF" mask="url(#mask-6)"></path>
                    </g>
                </g>
            </g>
        </g>
    </g>
</svg>

<svg width="140" height="160" viewBox="0 0 140 160" xmlns="http://www.w3.org/2000/svg" xmlns:xlink="http://www.w3.org/1999/xlink"><title>Idea</title><defs><path d="M6.995 1.348C4.798 1.348 2.18.886.161.065.148.49.174.886.242 1.295a6.555 6.555 0 0 0 5.257 5.352c.38.067 1.102.109 1.482.109 3.59 0 6.86-2.923 6.86-6.54v-.15C11.11.885 9.19 1.347 6.995 1.347z" id="a"/><path d="M4.233 4.19c-4.485 4.439-4.54 11.702-.136 16.224a6.19 6.19 0 0 1 1.478 2.758c1.91.941 4.24 1.528 6.64 1.528 2.439 0 4.822-.6 6.76-1.584a7.306 7.306 0 0 1 1.681-3.059c4.039-4.504 3.903-11.402-.325-15.73A11.318 11.318 0 0 0 12.212.9a11.31 11.31 0 0 0-7.979 3.29z" id="c"/><path d="M17.687 3.26C20.074 1.502 22.947.564 25.97.564c3.033 0 6.111 1.054 8.665 2.965 2.652 2.119 4.533 5.115 5.19 8.244l.536 2.321c.838 3.652.125 7.728-1.908 10.9l-2.484 3.995 3.773 1.138c4.385 1.399 8.083 4.482 10.17 8.467l.215.549 1.572 4.442c.806 2.243.47 4.669-.915 6.648-1.301 1.896-3.506 3.036-5.896 3.036H7.358A7.296 7.296 0 0 1 1.42 50.23C.103 48.29-.239 45.74.51 43.548l1.736-4.777.16-.17c2.18-4.113 5.796-7.103 10.176-8.4l3.773-1.136-2.714-4.381a14.545 14.545 0 0 1-2.06-10.131l.344-2.048c.696-3.834 2.742-7.11 5.763-9.245zM3.697 48.618c.83 1.16 2.17 1.844 3.66 1.844h37.531c1.5 0 2.817-.67 3.616-1.838.863-1.23 1.07-2.715.578-4.088l-1.654-4.68c-1.753-3.313-4.849-5.88-8.502-7.048l-7.255-2.187 4.436-7.136c1.642-2.564 2.216-5.83 1.546-8.758l-.543-2.345c-.532-2.527-2.049-4.932-4.167-6.624-2.044-1.53-4.532-2.388-6.973-2.388-2.431 0-4.735.752-6.666 2.175-2.44 1.723-4.081 4.363-4.642 7.448l-.34 2.02a11.745 11.745 0 0 0 1.667 8.17l4.658 7.518-7.278 2.194c-3.667 1.086-6.695 3.593-8.531 7.067l-.18.32-1.529 4.206c-.457 1.343-.244 2.935.568 4.13z" id="e"/></defs><g fill="none" fill-rule="evenodd"><path fill="#6DC7C7" d="M.16 39.92v79.533l69.536 39.766 69.537-39.766V39.92L69.696.154z"/><path fill="#6DC7C7" d="M.16 39.922v79.53l69.536 39.766 69.537-39.766v-79.53L69.696.155z"/><path fill="#6DC7C7" d="M.16 39.922v79.531l69.537 39.765 69.536-39.765V39.922L69.697.155z"/><g transform="translate(63.046 56.805)"><mask id="b" fill="#fff"><use xlink:href="#a"/></mask><path fill="#FFF" mask="url(#b)" d="M-2.119 9.054h18.237V-2.233H-2.12z"/></g><g transform="translate(57.483 31.542)"><mask id="d" fill="#fff"><use xlink:href="#c"/></mask><path fill="#FFF" mask="url(#d)" d="M-1.445 26.998h27.317V-1.398H-1.445z"/></g><path d="M48.235 115.8l-1.53 4.208c-.457 1.34-.243 2.932.569 4.127.829 1.162 2.17 1.844 3.66 1.844h37.53c1.499 0 2.816-.669 3.617-1.836.862-1.231 1.069-2.717.576-4.09l-1.654-4.679c-1.752-3.314-4.848-5.88-8.5-7.046l-7.257-2.189 4.437-7.136c1.642-2.563 2.216-5.831 1.545-8.757l-.541-2.346c-.532-2.527-2.05-4.932-4.168-6.624-2.043-1.53-4.533-2.387-6.974-2.387-2.43 0-4.734.752-6.665 2.173-2.44 1.725-4.08 4.364-4.641 7.448l-.34 2.021c-.46 2.848.13 5.752 1.667 8.17l4.657 7.518-7.277 2.194c-3.67 1.085-6.696 3.594-8.533 7.067l-.178.32zm40.23 12.986h-37.53a7.296 7.296 0 0 1-5.937-3.037c-1.319-1.94-1.662-4.49-.913-6.683l1.735-4.776.16-.17c2.18-4.114 5.797-7.103 10.176-8.4l3.774-1.137-2.713-4.382a14.547 14.547 0 0 1-2.061-10.13l.344-2.048c.697-3.835 2.742-7.11 5.763-9.245 2.387-1.758 5.26-2.696 8.282-2.696 3.035 0 6.112 1.053 8.665 2.966 2.654 2.118 4.534 5.113 5.192 8.242l.535 2.321c.838 3.654.125 7.728-1.909 10.9l-2.483 3.995 3.775 1.14c4.382 1.397 8.082 4.481 10.168 8.465l.216.55 1.57 4.443c.805 2.242.472 4.667-.915 6.648-1.298 1.895-3.505 3.034-5.894 3.034z" fill="#FFF"/><g transform="translate(43.576 75.518)"><mask id="f" fill="#fff"><use xlink:href="#e"/></mask><path d="M-908.61 3858.713H793.947v-5708.269H-908.609v5708.27zm-2.78 2.807H796.727v-5713.883H-911.391V3861.52z" fill="#FFF" mask="url(#f)"/><path d="M-3.346 56.76h58.932V-2.928H-3.346v59.69zm-2.782 2.808h64.496V-5.736H-6.128v65.304z" fill="#FFF" mask="url(#f)"/></g></g></svg>
